X: 27
T:O'Connor's Polka
M:2/4
L:1/8
S:Boys of the Lough: Regrouped
R:polka
K:D
A>B df|A>B df |eB BA/B/|dB Bd/B/|A>B df|A>B df |eB cd|1ed df:|2 ed df/g/
|
|:af fe/f/|af f>e |dB BA/B/|dB B>e|af fe/f/|af f>e |dB cd|1ed d>e :|2 ed
 d2|
